; generated by PrusaSlicer 2.2.0+win64 on 2020-06-21 at 20:43:21 UTC

; 

; external perimeters extrusion width = 0.45mm
; perimeters extrusion width = 0.45mm
; infill extrusion width = 0.45mm
; solid infill extrusion width = 0.45mm
; top infill extrusion width = 0.40mm
; first layer extrusion width = 0.37mm

M107
T0 ; make sure the only nozzle is selected
M98 P/macros/PLA offset  ; set z probe offset
M190 S65
M104 S190
G28 ; home all axes
;G1 Z5 F6000 ; turn off z probe
G29 ; bed calibration
M109 S190
;M117 Printing PITouchScreenAccessCover
G21 ; set units to millimeters
G90 ; use absolute coordinates
M83 ; use relative distances for extrusion
; Filament gcode
G10 ; retract
G1 Z0.350 F7800.000
G1 X64.116 Y76.593
G11 ; unretract
G1 F2100.000
G1 X64.423 Y75.621 E0.04338
G1 X64.919 Y74.600 E0.04830
G1 X65.452 Y73.798 E0.04096
G1 X66.101 Y73.078 E0.04123
G1 X67.004 Y72.318 E0.05023
G1 X67.840 Y71.791 E0.04204
G1 X68.774 Y71.384 E0.04334
G1 X69.886 Y71.075 E0.04914
G1 X70.830 Y70.959 E0.04042
G1 X99.761 Y69.600 E1.23230
G1 X181.083 Y70.153 E3.46002
G1 X181.980 Y70.252 E0.03841
G1 X182.904 Y70.478 E0.04048
G1 X183.815 Y70.838 E0.04169
G1 X184.629 Y71.293 E0.03964
G1 X185.388 Y71.861 E0.04036
G1 X186.052 Y72.510 E0.03950
G1 X186.628 Y73.242 E0.03961
G1 X187.082 Y74.001 E0.03767
G1 X187.436 Y74.804 E0.03732
G1 X187.681 Y75.614 E0.03599
G1 X187.877 Y77.251 E0.07014
G1 X186.893 Y223.478 E6.22159
G1 X186.799 Y224.441 E0.04117
G1 X186.589 Y225.339 E0.03924
G1 X186.253 Y226.228 E0.04041
G1 X185.809 Y227.054 E0.03992
G1 X185.258 Y227.816 E0.04004
G1 X184.620 Y228.490 E0.03944
G1 X183.889 Y229.086 E0.04015
G1 X183.082 Y229.579 E0.04023
G1 X182.308 Y229.929 E0.03616
G1 X181.484 Y230.188 E0.03673
G1 X180.636 Y230.344 E0.03670
G1 X179.785 Y230.397 E0.03626
G1 X98.463 Y229.846 E3.46006
G1 X69.107 Y227.828 E1.25191
G1 X67.497 Y227.364 E0.07128
G1 X66.130 Y226.614 E0.06635
G1 X64.803 Y225.439 E0.07542
G1 X64.293 Y224.793 E0.03504
G1 X63.867 Y224.087 E0.03504
G1 X63.465 Y223.241 E0.03990
G1 X63.195 Y222.422 E0.03666
G1 X63.004 Y221.380 E0.04507
G1 X62.948 Y220.521 E0.03666
G1 X63.904 Y78.281 E6.05194
G1 X64.109 Y76.653 E0.06981
G1 X64.397 Y76.689 F7800.000
G1 F2100.000
G1 X64.694 Y75.730 E0.04272
G1 X65.177 Y74.737 E0.04696
G1 X65.689 Y73.970 E0.03925
G1 X66.312 Y73.281 E0.03951
G1 X67.180 Y72.551 E0.04825
G1 X67.988 Y72.044 E0.04057
G1 X68.887 Y71.654 E0.04172
G1 X69.969 Y71.356 E0.04776
G1 X70.842 Y71.251 E0.03741
G1 X99.762 Y69.892 E1.23178
G1 X181.062 Y70.444 E3.45912
G1 X181.926 Y70.539 E0.03696
G1 X182.814 Y70.756 E0.03890
G1 X183.688 Y71.101 E0.03998
G1 X184.468 Y71.538 E0.03803
G1 X185.195 Y72.081 E0.03864
G1 X185.830 Y72.700 E0.03775
G1 X186.385 Y73.405 E0.03814
G1 X186.821 Y74.133 E0.03613
G1 X187.395 Y75.675 E0.06999
G1 X187.585 Y77.249 E0.06746
G1 X186.601 Y223.461 E6.22093
G1 X186.513 Y224.380 E0.03928
G1 X186.311 Y225.247 E0.03790
G1 X185.988 Y226.104 E0.03895
G1 X185.564 Y226.894 E0.03818
G1 X185.035 Y227.627 E0.03844
G1 X184.424 Y228.273 E0.03783
G1 X183.724 Y228.844 E0.03842
G1 X182.948 Y229.319 E0.03873
G1 X181.417 Y229.903 E0.06973
G1 X179.783 Y230.105 E0.07004
G1 X98.483 Y229.554 E3.45910
G1 X69.178 Y227.543 E1.24974
G1 X67.626 Y227.101 E0.06867
G1 X66.313 Y226.385 E0.06362
G1 X65.028 Y225.252 E0.07291
G1 X64.129 Y223.957 E0.06706
G1 X63.740 Y223.143 E0.03841
G1 X63.480 Y222.355 E0.03531
G1 X63.293 Y221.339 E0.04394
G1 X63.241 Y220.517 E0.03504
G1 X64.197 Y78.283 E6.05170
G1 X64.390 Y76.749 E0.06579
G10 ; retract
G1 X105.817 Y210.572 F7800.000
G11 ; unretract
G1 F600.000
G1 X106.126 Y210.516 E0.01339
G1 X106.433 Y210.499 E0.01306
G1 X106.743 Y210.520 E0.01323
G1 X107.048 Y210.581 E0.01323
G1 X107.343 Y210.679 E0.01324
G1 X107.624 Y210.813 E0.01324
G1 X107.885 Y210.982 E0.01324
G1 X108.124 Y211.182 E0.01324
G1 X108.335 Y211.410 E0.01323
G1 X108.516 Y211.662 E0.01323
G1 X108.664 Y211.936 E0.01324
G1 X108.777 Y212.226 E0.01323
G1 X108.852 Y212.528 E0.01323
G1 X108.889 Y212.837 E0.01324
G1 X108.887 Y213.148 E0.01324
G1 X108.846 Y213.456 E0.01324
G1 X108.767 Y213.757 E0.01323
G1 X108.650 Y214.046 E0.01323
G1 X108.501 Y214.314 E0.01306
G1 X108.314 Y214.567 E0.01339
G1 X108.100 Y214.793 E0.01325
G1 X107.859 Y214.990 E0.01324
G1 X107.595 Y215.154 E0.01324
G1 X107.312 Y215.285 E0.01324
G1 X107.016 Y215.379 E0.01323
G1 X106.710 Y215.435 E0.01324
G1 X106.399 Y215.453 E0.01323
G1 X106.089 Y215.431 E0.01324
G1 X105.784 Y215.371 E0.01324
G1 X105.489 Y215.273 E0.01324
G1 X105.208 Y215.138 E0.01325
G1 X104.943 Y214.967 E0.01339
G1 X104.708 Y214.770 E0.01306
G1 X104.497 Y214.542 E0.01323
G1 X104.316 Y214.289 E0.01323
G1 X104.168 Y214.015 E0.01324
G1 X104.055 Y213.725 E0.01324
G1 X103.981 Y213.428 E0.01305
G1 X103.943 Y213.115 E0.01340
G1 X103.945 Y212.804 E0.01326
G1 X103.986 Y212.495 E0.01324
G1 X104.065 Y212.195 E0.01323
G1 X104.182 Y211.906 E0.01324
G1 X104.331 Y211.638 E0.01306
G1 X104.518 Y211.384 E0.01339
G1 X104.732 Y211.159 E0.01325
G1 X104.973 Y210.962 E0.01323
G1 X105.237 Y210.797 E0.01323
G1 X105.520 Y210.667 E0.01324
G1 X105.759 Y210.590 E0.01071
G1 X105.848 Y210.869 F7800.000
G1 F600.000
G1 X106.161 Y210.807 E0.01357
G1 X106.431 Y210.792 E0.01150
G1 X106.704 Y210.811 E0.01167
G1 X106.973 Y210.864 E0.01167
G1 X107.234 Y210.950 E0.01167
G1 X107.481 Y211.069 E0.01167
G1 X107.712 Y211.218 E0.01167
G1 X107.922 Y211.394 E0.01167
G1 X108.108 Y211.595 E0.01167
G1 X108.268 Y211.818 E0.01167
G1 X108.398 Y212.059 E0.01167
G1 X108.498 Y212.315 E0.01167
G1 X108.564 Y212.581 E0.01167
G1 X108.597 Y212.853 E0.01167
G1 X108.595 Y213.128 E0.01167
G1 X108.559 Y213.400 E0.01167
G1 X108.489 Y213.665 E0.01167
G1 X108.386 Y213.919 E0.01167
G1 X108.254 Y214.155 E0.01151
G1 X108.090 Y214.379 E0.01183
G1 X107.900 Y214.578 E0.01167
G1 X107.688 Y214.751 E0.01167
G1 X107.455 Y214.897 E0.01167
G1 X107.206 Y215.012 E0.01167
G1 X106.945 Y215.095 E0.01167
G1 X106.675 Y215.145 E0.01167
G1 X106.401 Y215.160 E0.01167
G1 X106.128 Y215.141 E0.01167
G1 X105.859 Y215.088 E0.01167
G1 X105.598 Y215.001 E0.01167
G1 X105.351 Y214.883 E0.01168
G1 X105.117 Y214.732 E0.01183
G1 X104.910 Y214.558 E0.01150
G1 X104.724 Y214.357 E0.01167
G1 X104.564 Y214.134 E0.01167
G1 X104.434 Y213.892 E0.01167
G1 X104.334 Y213.637 E0.01167
G1 X104.269 Y213.375 E0.01150
G1 X104.235 Y213.098 E0.01183
G1 X104.237 Y212.824 E0.01168
G1 X104.273 Y212.552 E0.01167
G1 X104.343 Y212.287 E0.01167
G1 X104.446 Y212.033 E0.01167
G1 X104.578 Y211.797 E0.01150
G1 X104.742 Y211.572 E0.01183
G1 X104.932 Y211.374 E0.01168
G1 X105.144 Y211.200 E0.01167
G1 X105.377 Y211.055 E0.01167
G1 X105.626 Y210.940 E0.01167
G1 X105.791 Y210.887 E0.00737
G1 X105.932 Y210.561 F7800.000
G10 ; retract
G1 X169.443 Y213.244
G11 ; unretract
G1 F600.000
G1 X169.484 Y212.935 E0.01324
G1 X169.564 Y212.635 E0.01323
G1 X169.680 Y212.346 E0.01324
G1 X169.830 Y212.078 E0.01306
G1 X170.016 Y211.825 E0.01339
G1 X170.231 Y211.599 E0.01325
G1 X170.472 Y211.402 E0.01324
G1 X170.736 Y211.237 E0.01324
G1 X171.018 Y211.107 E0.01324
G1 X171.315 Y211.013 E0.01325
G1 X171.625 Y210.956 E0.01339
G1 X171.931 Y210.939 E0.01306
G1 X172.241 Y210.961 E0.01324
G1 X172.547 Y211.021 E0.01323
G1 X172.842 Y211.119 E0.01324
G1 X173.122 Y211.253 E0.01324
G1 X173.384 Y211.422 E0.01324
G1 X173.622 Y211.622 E0.01324
G1 X173.834 Y211.850 E0.01323
G1 X174.015 Y212.103 E0.01323
G1 X174.163 Y212.376 E0.01324
G1 X174.275 Y212.667 E0.01324
G1 X174.351 Y212.968 E0.01323
G1 X174.388 Y213.277 E0.01324
G1 X174.386 Y213.588 E0.01323
G1 X174.345 Y213.897 E0.01324
G1 X174.265 Y214.197 E0.01323
G1 X174.149 Y214.486 E0.01323
G1 X173.997 Y214.758 E0.01324
G1 X173.812 Y215.008 E0.01323
G1 X173.598 Y215.233 E0.01323
G1 X173.357 Y215.430 E0.01324
G1 X173.093 Y215.595 E0.01324
G1 X172.811 Y215.725 E0.01324
G1 X172.514 Y215.819 E0.01323
G1 X172.208 Y215.876 E0.01325
G1 X171.894 Y215.893 E0.01340
G1 X171.588 Y215.871 E0.01306
G1 X171.282 Y215.811 E0.01324
G1 X170.987 Y215.713 E0.01323
G1 X170.706 Y215.578 E0.01325
G1 X170.442 Y215.408 E0.01340
G1 X170.207 Y215.210 E0.01306
G1 X169.995 Y214.982 E0.01323
G1 X169.814 Y214.729 E0.01323
G1 X169.666 Y214.456 E0.01324
G1 X169.554 Y214.166 E0.01323
G1 X169.478 Y213.864 E0.01323
G1 X169.441 Y213.555 E0.01324
G1 X169.443 Y213.304 E0.01069
G1 X169.735 Y213.306 F7800.000
G1 F600.000
G1 X169.772 Y212.992 E0.01343
G1 X169.842 Y212.727 E0.01167
G1 X169.944 Y212.473 E0.01167
G1 X170.076 Y212.237 E0.01151
G1 X170.241 Y212.013 E0.01183
G1 X170.430 Y211.814 E0.01167
G1 X170.643 Y211.641 E0.01167
G1 X170.875 Y211.495 E0.01167
G1 X171.124 Y211.380 E0.01167
G1 X171.386 Y211.297 E0.01168
G1 X171.659 Y211.247 E0.01183
G1 X171.929 Y211.232 E0.01150
G1 X172.203 Y211.251 E0.01167
G1 X172.472 Y211.304 E0.01167
G1 X172.732 Y211.391 E0.01167
G1 X172.980 Y211.509 E0.01167
G1 X173.210 Y211.658 E0.01167
G1 X173.420 Y211.834 E0.01167
G1 X173.607 Y212.035 E0.01167
G1 X173.766 Y212.258 E0.01167
G1 X173.897 Y212.499 E0.01167
G1 X173.996 Y212.755 E0.01167
G1 X174.063 Y213.021 E0.01167
G1 X174.095 Y213.294 E0.01167
G1 X174.093 Y213.568 E0.01167
G1 X174.057 Y213.840 E0.01167
G1 X173.987 Y214.105 E0.01167
G1 X173.885 Y214.359 E0.01167
G1 X173.751 Y214.599 E0.01167
G1 X173.588 Y214.820 E0.01167
G1 X173.399 Y215.018 E0.01167
G1 X173.186 Y215.192 E0.01167
G1 X172.954 Y215.337 E0.01167
G1 X172.705 Y215.452 E0.01167
G1 X172.443 Y215.535 E0.01167
G1 X172.174 Y215.585 E0.01168
G1 X171.896 Y215.600 E0.01183
G1 X171.626 Y215.581 E0.01150
G1 X171.357 Y215.528 E0.01167
G1 X171.097 Y215.441 E0.01167
G1 X170.849 Y215.323 E0.01168
G1 X170.616 Y215.172 E0.01183
G1 X170.409 Y214.998 E0.01150
G1 X170.222 Y214.797 E0.01167
G1 X170.063 Y214.574 E0.01167
G1 X169.932 Y214.333 E0.01167
G1 X169.833 Y214.077 E0.01167
G1 X169.766 Y213.811 E0.01167
G1 X169.734 Y213.539 E0.01167
G1 X169.735 Y213.366 E0.00735
G1 X169.471 Y213.133 F7800.000
G10 ; retract
G1 X172.746 Y89.696
G11 ; unretract
G1 F600.000
G1 X172.436 Y89.674 E0.01324
G1 X172.131 Y89.614 E0.01320
G1 X171.836 Y89.517 E0.01323
G1 X171.555 Y89.382 E0.01327
G1 X171.293 Y89.213 E0.01324
G1 X171.055 Y89.013 E0.01322
G1 X170.844 Y88.785 E0.01323
G1 X170.662 Y88.533 E0.01323
G1 X170.514 Y88.259 E0.01325
G1 X170.402 Y87.968 E0.01325
G1 X170.326 Y87.667 E0.01321
G1 X170.290 Y87.358 E0.01323
G1 X170.292 Y87.046 E0.01328
G1 X170.333 Y86.738 E0.01323
G1 X170.412 Y86.438 E0.01321
G1 X170.528 Y86.149 E0.01325
G1 X170.680 Y85.877 E0.01325
G1 X170.865 Y85.627 E0.01323
G1 X171.079 Y85.402 E0.01323
G1 X171.320 Y85.205 E0.01322
G1 X171.584 Y85.040 E0.01324
G1 X171.867 Y84.909 E0.01327
G1 X172.169 Y84.814 E0.01346
G1 X172.528 Y84.756 E0.01548
G1 X172.779 Y84.742 E0.01071
G1 X173.090 Y84.764 E0.01325
G1 X173.394 Y84.824 E0.01320
G1 X173.690 Y84.921 E0.01323
G1 X173.971 Y85.056 E0.01328
G1 X174.232 Y85.225 E0.01324
G1 X174.470 Y85.425 E0.01322
G1 X174.682 Y85.653 E0.01323
G1 X174.863 Y85.905 E0.01323
G1 X175.011 Y86.179 E0.01325
G1 X175.124 Y86.469 E0.01325
G1 X175.199 Y86.771 E0.01322
G1 X175.236 Y87.080 E0.01323
G1 X175.234 Y87.391 E0.01327
G1 X175.193 Y87.700 E0.01323
G1 X175.113 Y88.000 E0.01322
G1 X174.997 Y88.289 E0.01325
G1 X174.845 Y88.561 E0.01325
G1 X174.661 Y88.811 E0.01323
G1 X174.446 Y89.036 E0.01323
G1 X174.205 Y89.232 E0.01322
G1 X173.942 Y89.398 E0.01324
G1 X173.659 Y89.529 E0.01328
G1 X173.362 Y89.622 E0.01323
G1 X173.057 Y89.678 E0.01320
G1 X172.806 Y89.693 E0.01069
G1 X172.789 Y89.401 F7800.000
G1 F600.000
G1 X172.474 Y89.384 E0.01342
G1 X172.206 Y89.331 E0.01166
G1 X171.945 Y89.245 E0.01166
G1 X171.698 Y89.126 E0.01169
G1 X171.467 Y88.977 E0.01168
G1 X171.257 Y88.801 E0.01166
G1 X171.071 Y88.600 E0.01166
G1 X170.911 Y88.377 E0.01166
G1 X170.780 Y88.136 E0.01167
G1 X170.681 Y87.880 E0.01169
G1 X170.615 Y87.614 E0.01165
G1 X170.582 Y87.342 E0.01166
G1 X170.584 Y87.067 E0.01171
G1 X170.620 Y86.795 E0.01166
G1 X170.690 Y86.530 E0.01165
G1 X170.793 Y86.275 E0.01169
G1 X170.927 Y86.036 E0.01167
G1 X171.089 Y85.815 E0.01166
G1 X171.278 Y85.617 E0.01166
G1 X171.491 Y85.443 E0.01166
G1 X171.723 Y85.298 E0.01168
G1 X171.973 Y85.182 E0.01169
G1 X172.236 Y85.099 E0.01175
G1 X172.559 Y85.048 E0.01394
G1 X172.777 Y85.035 E0.00929
G1 X173.051 Y85.054 E0.01168
G1 X173.320 Y85.107 E0.01166
G1 X173.580 Y85.193 E0.01166
G1 X173.828 Y85.312 E0.01169
G1 X174.059 Y85.461 E0.01168
G1 X174.269 Y85.637 E0.01166
G1 X174.455 Y85.838 E0.01166
G1 X174.615 Y86.061 E0.01166
G1 X174.745 Y86.302 E0.01167
G1 X174.844 Y86.558 E0.01169
G1 X174.911 Y86.824 E0.01166
G1 X174.943 Y87.096 E0.01166
G1 X174.942 Y87.371 E0.01170
G1 X174.905 Y87.643 E0.01166
G1 X174.835 Y87.908 E0.01166
G1 X174.733 Y88.163 E0.01169
G1 X174.599 Y88.402 E0.01167
G1 X174.436 Y88.623 E0.01166
G1 X174.247 Y88.821 E0.01166
G1 X174.035 Y88.994 E0.01166
G1 X173.802 Y89.140 E0.01168
G1 X173.553 Y89.256 E0.01169
G1 X173.291 Y89.338 E0.01166
G1 X173.022 Y89.387 E0.01166
G1 X172.849 Y89.397 E0.00736
G1 X172.633 Y89.675 F7800.000
G10 ; retract
G1 X109.735 Y86.951
G11 ; unretract
G1 F600.000
G1 X109.694 Y87.260 E0.01323
G1 X109.615 Y87.560 E0.01321
G1 X109.499 Y87.849 E0.01325
G1 X109.347 Y88.121 E0.01325
G1 X109.162 Y88.371 E0.01323
G1 X108.948 Y88.596 E0.01323
G1 X108.707 Y88.792 E0.01322
G1 X108.443 Y88.958 E0.01324
G1 X108.160 Y89.089 E0.01327
G1 X107.864 Y89.182 E0.01323
G1 X107.558 Y89.238 E0.01320
G1 X107.248 Y89.256 E0.01324
G1 X106.937 Y89.234 E0.01324
G1 X106.633 Y89.174 E0.01320
G1 X106.337 Y89.076 E0.01323
G1 X106.056 Y88.941 E0.01327
G1 X105.795 Y88.773 E0.01324
G1 X105.557 Y88.573 E0.01322
G1 X105.345 Y88.345 E0.01323
G1 X105.164 Y88.092 E0.01323
G1 X105.016 Y87.819 E0.01324
G1 X104.903 Y87.528 E0.01325
G1 X104.828 Y87.227 E0.01322
G1 X104.791 Y86.918 E0.01323
G1 X104.793 Y86.606 E0.01327
G1 X104.834 Y86.298 E0.01323
G1 X104.914 Y85.998 E0.01322
G1 X105.030 Y85.709 E0.01325
G1 X105.182 Y85.437 E0.01324
G1 X105.366 Y85.187 E0.01323
G1 X105.581 Y84.961 E0.01323
G1 X105.822 Y84.765 E0.01321
G1 X106.085 Y84.600 E0.01324
G1 X106.368 Y84.469 E0.01327
G1 X106.670 Y84.374 E0.01346
G1 X107.029 Y84.316 E0.01547
G1 X107.281 Y84.302 E0.01072
G1 X107.591 Y84.324 E0.01325
G1 X107.896 Y84.384 E0.01320
G1 X108.191 Y84.481 E0.01323
G1 X108.472 Y84.616 E0.01327
G1 X108.734 Y84.785 E0.01324
G1 X108.972 Y84.984 E0.01322
G1 X109.183 Y85.212 E0.01323
G1 X109.365 Y85.465 E0.01323
G1 X109.513 Y85.739 E0.01325
G1 X109.625 Y86.029 E0.01325
G1 X109.700 Y86.331 E0.01321
G1 X109.737 Y86.639 E0.01323
G1 X109.736 Y86.891 E0.01072
G1 X109.443 Y86.889 F7800.000
G1 F600.000
G1 X109.407 Y87.203 E0.01342
G1 X109.337 Y87.467 E0.01165
G1 X109.234 Y87.722 E0.01169
G1 X109.100 Y87.962 E0.01167
G1 X108.938 Y88.182 E0.01166
G1 X108.749 Y88.381 E0.01166
G1 X108.536 Y88.554 E0.01166
G1 X108.304 Y88.700 E0.01168
G1 X108.054 Y88.815 E0.01169
G1 X107.793 Y88.898 E0.01166
G1 X107.523 Y88.947 E0.01166
G1 X107.250 Y88.963 E0.01167
G1 X106.976 Y88.943 E0.01167
G1 X106.707 Y88.890 E0.01166
G1 X106.447 Y88.804 E0.01166
G1 X106.199 Y88.686 E0.01169
G1 X105.969 Y88.537 E0.01168
G1 X105.758 Y88.361 E0.01166
G1 X105.572 Y88.160 E0.01167
G1 X105.412 Y87.937 E0.01166
G1 X105.282 Y87.696 E0.01167
G1 X105.183 Y87.440 E0.01169
G1 X105.116 Y87.174 E0.01166
G1 X105.084 Y86.902 E0.01166
G1 X105.085 Y86.626 E0.01171
G1 X105.122 Y86.355 E0.01166
G1 X105.192 Y86.090 E0.01166
G1 X105.294 Y85.835 E0.01169
G1 X105.428 Y85.596 E0.01167
G1 X105.591 Y85.375 E0.01166
G1 X105.780 Y85.176 E0.01167
G1 X105.992 Y85.003 E0.01166
G1 X106.225 Y84.857 E0.01168
G1 X106.474 Y84.742 E0.01169
G1 X106.738 Y84.659 E0.01175
G1 X107.061 Y84.607 E0.01393
G1 X107.279 Y84.595 E0.00929
G1 X107.553 Y84.614 E0.01168
G1 X107.821 Y84.667 E0.01166
G1 X108.082 Y84.753 E0.01166
G1 X108.329 Y84.872 E0.01169
G1 X108.560 Y85.020 E0.01168
G1 X108.770 Y85.197 E0.01166
G1 X108.956 Y85.398 E0.01166
G1 X109.116 Y85.620 E0.01166
G1 X109.247 Y85.862 E0.01167
G1 X109.346 Y86.118 E0.01169
G1 X109.412 Y86.384 E0.01165
G1 X109.445 Y86.656 E0.01166
G1 X109.444 Y86.829 E0.00739
G1 X109.707 Y87.062 F7800.000
G10 ; retract
G1 X99.033 Y173.781
G11 ; unretract
G1 F3000.000
G1 X99.091 Y165.202 E0.36502
G1 X120.171 Y165.343 E0.89692
G1 X120.467 Y165.327 E0.01260
G1 X120.773 Y165.271 E0.01323
