; generated by PrusaSlicer 2.2.0+win64 on 2020-06-22 at 13:29:47 UTC

; 

; external perimeters extrusion width = 0.45mm
; perimeters extrusion width = 0.45mm
; infill extrusion width = 0.45mm
; solid infill extrusion width = 0.45mm
; top infill extrusion width = 0.40mm
; first layer extrusion width = 0.37mm

M107
T0 ; make sure the only nozzle is selected
M98 P/macros/PLA offset  ; set z probe offset
M190 S65
M104 S190
G28 ; home all axes
;G1 Z5 F6000 ; turn off z probe
G29 ; bed calibration
M109 S190
;M117 Printing PITouchScreen
G21 ; set units to millimeters
G90 ; use absolute coordinates
M83 ; use relative distances for extrusion
; Filament gcode
G10 ; retract
G1 Z0.350 F7800.000
G1 X38.349 Y46.376
G11 ; unretract
G1 F2100.000
G1 X39.426 Y45.523 E0.05846
G1 X40.713 Y44.853 E0.06176
G1 X42.024 Y44.463 E0.05817
G1 X43.472 Y44.320 E0.06191
G1 X157.709 Y44.871 E4.86042
G1 X158.612 Y44.956 E0.03860
G1 X159.540 Y45.163 E0.04047
G1 X160.418 Y45.480 E0.03970
G1 X161.287 Y45.927 E0.04160
G1 X162.040 Y46.445 E0.03888
G1 X162.762 Y47.092 E0.04123
G1 X163.376 Y47.804 E0.04001
G1 X163.927 Y48.647 E0.04287
G1 X164.311 Y49.434 E0.03722
G1 X164.619 Y50.337 E0.04060
G1 X164.803 Y51.233 E0.03895
G1 X164.877 Y52.228 E0.04241
G1 X163.933 Y248.449 E8.34862
G1 X163.840 Y249.454 E0.04295
G1 X163.631 Y250.375 E0.04021
G1 X163.290 Y251.298 E0.04182
G1 X162.854 Y252.127 E0.03987
G1 X162.293 Y252.925 E0.04150
G1 X161.652 Y253.621 E0.04026
G1 X160.922 Y254.237 E0.04064
G1 X160.112 Y254.755 E0.04090
G1 X159.266 Y255.156 E0.03984
G1 X158.391 Y255.442 E0.03918
G1 X157.473 Y255.620 E0.03978
G1 X156.545 Y255.680 E0.03956
G1 X42.342 Y255.130 E4.85898
G1 X41.417 Y255.048 E0.03951
G1 X40.472 Y254.841 E0.04115
G1 X39.578 Y254.519 E0.04042
G1 X38.696 Y254.062 E0.04227
G1 X37.937 Y253.536 E0.03931
G1 X37.201 Y252.869 E0.04227
G1 X36.583 Y252.140 E0.04064
G1 X36.025 Y251.266 E0.04412
G1 X35.665 Y250.504 E0.03585
G1 X35.369 Y249.617 E0.03981
G1 X35.193 Y248.742 E0.03796
G1 X35.124 Y247.770 E0.04147
G1 X36.070 Y51.438 E8.35333
G1 X36.255 Y50.062 E0.05907
G1 X36.726 Y48.667 E0.06261
G1 X37.406 Y47.477 E0.05833
G1 X38.310 Y46.422 E0.05913
G1 X38.531 Y46.611 F7800.000
G1 F2100.000
G1 X39.577 Y45.774 E0.05702
G1 X40.818 Y45.126 E0.05958
G1 X42.080 Y44.751 E0.05598
G1 X43.475 Y44.612 E0.05964
G1 X157.690 Y45.163 E4.85954
G1 X158.560 Y45.244 E0.03716
G1 X159.453 Y45.442 E0.03891
G1 X160.296 Y45.745 E0.03812
G1 X161.126 Y46.172 E0.03972
G1 X161.851 Y46.669 E0.03738
G1 X162.545 Y47.289 E0.03960
G1 X163.136 Y47.972 E0.03843
G1 X163.668 Y48.782 E0.04124
G1 X164.037 Y49.537 E0.03576
G1 X164.336 Y50.409 E0.03921
G1 X164.513 Y51.270 E0.03740
G1 X164.584 Y52.227 E0.04084
G1 X163.641 Y248.439 E8.34823
G1 X163.552 Y249.405 E0.04128
G1 X163.350 Y250.292 E0.03869
G1 X163.025 Y251.174 E0.04001
G1 X162.605 Y251.974 E0.03846
G1 X162.065 Y252.742 E0.03991
G1 X161.449 Y253.411 E0.03869
G1 X160.751 Y253.999 E0.03886
G1 X159.974 Y254.498 E0.03928
G1 X159.162 Y254.883 E0.03822
G1 X158.321 Y255.158 E0.03764
G1 X157.432 Y255.330 E0.03853
G1 X156.542 Y255.388 E0.03794
G1 X42.353 Y254.838 E4.85840
G1 X41.462 Y254.759 E0.03808
G1 X40.553 Y254.560 E0.03956
G1 X39.695 Y254.251 E0.03884
G1 X38.846 Y253.812 E0.04065
G1 X38.117 Y253.306 E0.03775
G1 X37.414 Y252.669 E0.04038
G1 X36.820 Y251.969 E0.03905
G1 X36.281 Y251.124 E0.04264
G1 X35.936 Y250.396 E0.03425
G1 X35.653 Y249.545 E0.03817
G1 X35.483 Y248.705 E0.03644
G1 X35.416 Y247.771 E0.03987
G1 X36.362 Y51.456 E8.35260
G1 X36.539 Y50.133 E0.05680
G1 X36.990 Y48.793 E0.06013
G1 X37.642 Y47.649 E0.05605
G1 X38.492 Y46.656 E0.05558
G10 ; retract
G1 X115.834 Y129.280 F7800.000
G11 ; unretract
G1 F600.000
G1 X116.074 Y129.083 E0.01322
G1 X116.338 Y128.917 E0.01324
G1 X116.621 Y128.786 E0.01327
G1 X116.918 Y128.692 E0.01328
G1 X117.232 Y128.635 E0.01357
G1 X117.533 Y128.617 E0.01283
G1 X117.844 Y128.638 E0.01324
G1 X118.148 Y128.698 E0.01320
G1 X118.444 Y128.795 E0.01323
G1 X118.725 Y128.929 E0.01327
G1 X118.987 Y129.097 E0.01324
G1 X119.225 Y129.296 E0.01322
G1 X119.437 Y129.524 E0.01323
G1 X119.619 Y129.776 E0.01323
G1 X119.768 Y130.050 E0.01325
G1 X119.881 Y130.340 E0.01325
G1 X119.956 Y130.641 E0.01321
G1 X119.994 Y130.950 E0.01323
G1 X119.993 Y131.262 E0.01327
G1 X119.952 Y131.570 E0.01323
G1 X119.873 Y131.871 E0.01321
G1 X119.757 Y132.160 E0.01325
G1 X119.606 Y132.432 E0.01325
G1 X119.422 Y132.682 E0.01323
G1 X119.208 Y132.908 E0.01323
G1 X118.968 Y133.105 E0.01322
G1 X118.704 Y133.271 E0.01324
G1 X118.421 Y133.402 E0.01327
G1 X118.125 Y133.496 E0.01323
G1 X117.820 Y133.553 E0.01320
G1 X117.509 Y133.571 E0.01324
G1 X117.199 Y133.550 E0.01324
G1 X116.894 Y133.490 E0.01320
G1 X116.599 Y133.393 E0.01323
G1 X116.317 Y133.259 E0.01327
G1 X116.055 Y133.091 E0.01324
G1 X115.817 Y132.892 E0.01322
G1 X115.605 Y132.664 E0.01323
G1 X115.423 Y132.412 E0.01323
G1 X115.275 Y132.138 E0.01325
G1 X115.162 Y131.848 E0.01325
G1 X115.086 Y131.547 E0.01321
G1 X115.048 Y131.238 E0.01323
G1 X115.050 Y130.926 E0.01327
G1 X115.090 Y130.618 E0.01323
G1 X115.169 Y130.317 E0.01321
G1 X115.285 Y130.028 E0.01325
G1 X115.436 Y129.756 E0.01325
G1 X115.620 Y129.506 E0.01323
G1 X115.793 Y129.324 E0.01067
G1 X116.005 Y129.525 F7800.000
G1 F600.000
G1 X116.246 Y129.321 E0.01342
G1 X116.478 Y129.175 E0.01168
G1 X116.727 Y129.059 E0.01168
G1 X116.989 Y128.976 E0.01168
G1 X117.267 Y128.925 E0.01203
G1 X117.532 Y128.910 E0.01128
G1 X117.805 Y128.929 E0.01167
G1 X118.074 Y128.981 E0.01166
G1 X118.335 Y129.067 E0.01167
G1 X118.583 Y129.185 E0.01168
G1 X118.813 Y129.333 E0.01168
G1 X119.024 Y129.509 E0.01166
G1 X119.211 Y129.710 E0.01166
G1 X119.371 Y129.932 E0.01166
G1 X119.502 Y130.173 E0.01167
G1 X119.601 Y130.429 E0.01169
G1 X119.668 Y130.695 E0.01165
G1 X119.702 Y130.967 E0.01166
G1 X119.700 Y131.242 E0.01171
G1 X119.665 Y131.514 E0.01166
G1 X119.595 Y131.779 E0.01165
G1 X119.493 Y132.034 E0.01169
G1 X119.360 Y132.274 E0.01167
G1 X119.197 Y132.494 E0.01166
G1 X119.008 Y132.693 E0.01166
G1 X118.796 Y132.867 E0.01166
G1 X118.564 Y133.013 E0.01168
G1 X118.315 Y133.129 E0.01168
G1 X118.054 Y133.212 E0.01167
G1 X117.784 Y133.262 E0.01166
G1 X117.511 Y133.278 E0.01167
G1 X117.237 Y133.259 E0.01167
G1 X116.968 Y133.207 E0.01166
G1 X116.707 Y133.121 E0.01166
G1 X116.460 Y133.003 E0.01168
G1 X116.229 Y132.855 E0.01168
G1 X116.018 Y132.679 E0.01166
G1 X115.832 Y132.478 E0.01166
G1 X115.671 Y132.256 E0.01166
G1 X115.540 Y132.015 E0.01167
G1 X115.441 Y131.759 E0.01169
G1 X115.374 Y131.493 E0.01165
G1 X115.341 Y131.221 E0.01166
G1 X115.342 Y130.946 E0.01171
G1 X115.378 Y130.674 E0.01166
G1 X115.447 Y130.409 E0.01165
G1 X115.549 Y130.154 E0.01169
G1 X115.683 Y129.914 E0.01167
G1 X115.845 Y129.693 E0.01166
G1 X115.964 Y129.568 E0.00734
G1 X115.931 Y129.218 F7800.000
G10 ; retract
G1 X115.687 Y133.605
G11 ; unretract
G1 F3000.000
G1 X115.890 Y133.619 E0.00865
G1 X116.194 Y133.678 E0.01320
G1 X116.490 Y133.775 E0.01323
G1 X116.771 Y133.910 E0.01327
G1 X117.033 Y134.078 E0.01324
G1 X117.271 Y134.277 E0.01322
G1 X117.483 Y134.505 E0.01323
G1 X117.665 Y134.757 E0.01323
G1 X117.814 Y135.030 E0.01325
G1 X117.927 Y135.321 E0.01325
G1 X118.003 Y135.622 E0.01321
G1 X118.040 Y135.931 E0.01323
G1 X117.808 Y184.242 E2.05549
G1 X117.767 Y184.550 E0.01324
G1 X117.689 Y184.851 E0.01323
G1 X117.573 Y185.140 E0.01324
G1 X117.421 Y185.412 E0.01324
G1 X117.237 Y185.662 E0.01323
G1 X117.023 Y185.888 E0.01323
G1 X116.783 Y186.085 E0.01324
G1 X116.519 Y186.250 E0.01323
G1 X116.237 Y186.382 E0.01323
G1 X115.941 Y186.476 E0.01324
G1 X115.635 Y186.533 E0.01323
G1 X115.340 Y186.550 E0.01260
G1 X69.310 Y186.329 E1.95841
G1 X69.015 Y186.309 E0.01260
G1 X68.709 Y186.249 E0.01323
G1 X68.414 Y186.152 E0.01324
G1 X68.133 Y186.018 E0.01324
G1 X67.871 Y185.850 E0.01324
G1 X67.633 Y185.651 E0.01324
G1 X67.421 Y185.423 E0.01323
G1 X67.239 Y185.170 E0.01323
G1 X67.091 Y184.897 E0.01324
G1 X66.977 Y184.607 E0.01324
G1 X66.902 Y184.306 E0.01323
G1 X66.864 Y183.997 E0.01324
G1 X67.096 Y135.686 E2.05549
G1 X67.137 Y135.377 E0.01323
G1 X67.215 Y135.077 E0.01321
G1 X67.331 Y134.788 E0.01325
G1 X67.483 Y134.516 E0.01325
G1 X67.667 Y134.265 E0.01323
G1 X67.881 Y134.040 E0.01323
G1 X68.121 Y133.843 E0.01322
G1 X68.384 Y133.677 E0.01324
G1 X68.667 Y133.545 E0.01327
G1 X68.920 Y133.465 E0.01127
G1 X68.892 Y133.313 E0.00659
G1 X68.510 Y133.336 E0.01628
G1 X68.199 Y133.314 E0.01324
G1 X67.895 Y133.255 E0.01320
G1 X67.599 Y133.158 E0.01323
G1 X67.318 Y133.024 E0.01327
G1 X67.056 Y132.855 E0.01324
G1 X66.817 Y132.656 E0.01322
G1 X66.606 Y132.429 E0.01323
G1 X66.424 Y132.176 E0.01323
G1 X66.275 Y131.903 E0.01325
G1 X66.162 Y131.612 E0.01325
G1 X66.086 Y131.311 E0.01321
G1 X66.049 Y131.003 E0.01323
G1 X66.050 Y130.691 E0.01327
G1 X66.091 Y130.382 E0.01323
G1 X66.169 Y130.082 E0.01321
G1 X66.285 Y129.793 E0.01325
G1 X66.437 Y129.521 E0.01325
G1 X66.621 Y129.270 E0.01323
G1 X66.835 Y129.045 E0.01323
G1 X67.075 Y128.848 E0.01322
G1 X67.338 Y128.682 E0.01324
G1 X67.621 Y128.550 E0.01327
G1 X67.919 Y128.456 E0.01327
G1 X68.233 Y128.399 E0.01357
G1 X68.534 Y128.381 E0.01283
G1 X68.844 Y128.403 E0.01324
G1 X69.149 Y128.462 E0.01320
G1 X69.444 Y128.559 E0.01323
G1 X69.726 Y128.693 E0.01327
G1 X69.987 Y128.862 E0.01324
G1 X70.226 Y129.061 E0.01322
G1 X70.438 Y129.288 E0.01323
G1 X70.619 Y129.541 E0.01323
G1 X70.768 Y129.814 E0.01325
G1 X70.881 Y130.105 E0.01325
G1 X70.957 Y130.406 E0.01321
G1 X70.995 Y130.714 E0.01323
G1 X70.993 Y131.026 E0.01327
G1 X70.953 Y131.335 E0.01323
G1 X70.874 Y131.635 E0.01321
G1 X70.758 Y131.924 E0.01325
G1 X70.607 Y132.196 E0.01325
G1 X70.422 Y132.447 E0.01323
G1 X70.209 Y132.672 E0.01323
G1 X69.968 Y132.869 E0.01322
G1 X69.705 Y133.035 E0.01324
G1 X69.422 Y133.167 E0.01327
G1 X69.169 Y133.247 E0.01127
G1 X69.198 Y133.399 E0.00659
G1 X69.564 Y133.377 E0.01563
G1 X115.627 Y133.601 E1.95982
G1 X115.607 Y133.893 F7800.000
G1 F2400.000
G1 X115.851 Y133.909 E0.01043
G1 X116.120 Y133.962 E0.01166
G1 X116.381 Y134.047 E0.01166
G1 X116.629 Y134.165 E0.01168
G1 X116.859 Y134.314 E0.01168
G1 X117.070 Y134.490 E0.01166
G1 X117.257 Y134.690 E0.01166
G1 X117.417 Y134.913 E0.01166
G1 X117.548 Y135.154 E0.01167
G1 X117.648 Y135.410 E0.01169
G1 X117.714 Y135.675 E0.01165
G1 X117.748 Y135.948 E0.01166
G1 X117.516 Y184.222 E2.05392
G1 X117.480 Y184.494 E0.01167
G1 X117.410 Y184.759 E0.01167
G1 X117.308 Y185.014 E0.01167
G1 X117.175 Y185.253 E0.01167
G1 X117.013 Y185.474 E0.01167
G1 X116.824 Y185.673 E0.01167
G1 X116.612 Y185.847 E0.01167
G1 X116.379 Y185.993 E0.01167
G1 X116.131 Y186.109 E0.01167
G1 X115.869 Y186.192 E0.01167
G1 X115.600 Y186.242 E0.01167
G1 X115.332 Y186.258 E0.01142
G1 X69.321 Y186.037 E1.95763
G1 X69.053 Y186.019 E0.01142
G1 X68.784 Y185.966 E0.01167
G1 X68.523 Y185.880 E0.01167
G1 X68.276 Y185.762 E0.01167
G1 X68.045 Y185.614 E0.01167
G1 X67.834 Y185.438 E0.01167
G1 X67.647 Y185.237 E0.01167
G1 X67.487 Y185.015 E0.01167
G1 X67.356 Y184.773 E0.01167
G1 X67.257 Y184.518 E0.01167
G1 X67.190 Y184.252 E0.01167
G1 X67.156 Y183.980 E0.01167
G1 X67.388 Y135.706 E2.05392
G1 X67.424 Y135.434 E0.01166
G1 X67.494 Y135.169 E0.01165
G1 X67.596 Y134.914 E0.01169
G1 X67.729 Y134.674 E0.01167
G1 X67.892 Y134.453 E0.01166
G1 X68.080 Y134.254 E0.01166
G1 X68.292 Y134.081 E0.01166
G1 X68.525 Y133.934 E0.01168
G1 X68.774 Y133.818 E0.01169
G1 X69.035 Y133.736 E0.01168
G1 X69.313 Y133.685 E0.01203
G1 X69.572 Y133.670 E0.01103
G1 X115.547 Y133.891 E1.95608
G1 X115.739 Y133.686 F7800.000
G10 ; retract
G1 X70.701 Y131.007
G11 ; unretract
G1 F600.000
G1 X70.665 Y131.278 E0.01166
G1 X70.596 Y131.543 E0.01165
G1 X70.493 Y131.798 E0.01169
G1 X70.360 Y132.038 E0.01167
G1 X70.198 Y132.259 E0.01166
G1 X70.009 Y132.458 E0.01166
G1 X69.797 Y132.632 E0.01166
G1 X69.565 Y132.778 E0.01168
G1 X69.316 Y132.894 E0.01169
G1 X69.054 Y132.976 E0.01166
G1 X68.785 Y133.026 E0.01166
G1 X68.511 Y133.043 E0.01167
G1 X68.237 Y133.024 E0.01167
G1 X67.968 Y132.971 E0.01166
G1 X67.708 Y132.886 E0.01166
G1 X67.460 Y132.768 E0.01169
G1 X67.229 Y132.619 E0.01168
G1 X67.019 Y132.444 E0.01166
G1 X66.832 Y132.243 E0.01166
G1 X66.672 Y132.020 E0.01166
G1 X66.541 Y131.779 E0.01167
G1 X66.441 Y131.523 E0.01169
G1 X66.374 Y131.258 E0.01165
G1 X66.341 Y130.986 E0.01166
G1 X66.342 Y130.710 E0.01171
G1 X66.378 Y130.439 E0.01166
G1 X66.448 Y130.174 E0.01166
G1 X66.550 Y129.919 E0.01169
G1 X66.683 Y129.679 E0.01167
G1 X66.846 Y129.458 E0.01166
G1 X67.034 Y129.259 E0.01166
G1 X67.246 Y129.085 E0.01166
G1 X67.479 Y128.939 E0.01168
G1 X67.728 Y128.823 E0.01169
G1 X67.989 Y128.740 E0.01168
G1 X68.267 Y128.690 E0.01203
G1 X68.532 Y128.674 E0.01128
G1 X68.806 Y128.693 E0.01167
G1 X69.075 Y128.746 E0.01166
G1 X69.335 Y128.831 E0.01166
G1 X69.583 Y128.949 E0.01169
G1 X69.814 Y129.098 E0.01168
G1 X70.024 Y129.273 E0.01166
G1 X70.211 Y129.474 E0.01166
G1 X70.371 Y129.697 E0.01166
G1 X70.502 Y129.938 E0.01167
G1 X70.602 Y130.194 E0.01169
G1 X70.669 Y130.459 E0.01165
G1 X70.702 Y130.731 E0.01166
G1 X70.701 Y130.947 E0.00915
G1 X70.928 Y131.159 F7800.000
G10 ; retract
G1 X68.255 Y186.381
G11 ; unretract
G1 F600.000
G1 X68.565 Y186.402 E0.01324
G1 X68.870 Y186.462 E0.01323
G1 X69.166 Y186.559 E0.01324
G1 X69.447 Y186.693 E0.01324
G1 X69.709 Y186.861 E0.01324
G1 X69.947 Y187.060 E0.01324
G1 X70.159 Y187.288 E0.01323
G1 X70.341 Y187.540 E0.01323
G1 X70.489 Y187.814 E0.01324
G1 X70.602 Y188.104 E0.01323
G1 X70.678 Y188.405 E0.01323
G1 X70.716 Y188.714 E0.01324
G1 X70.714 Y189.025 E0.01324
G1 X70.674 Y189.334 E0.01324
G1 X70.595 Y189.635 E0.01323
G1 X70.479 Y189.923 E0.01323
G1 X70.333 Y190.187 E0.01283
G1 X70.144 Y190.446 E0.01365
G1 X69.922 Y190.678 E0.01364
G1 X69.689 Y190.869 E0.01282
G1 X69.426 Y191.034 E0.01324
G1 X69.144 Y191.165 E0.01324
G1 X68.847 Y191.260 E0.01324
G1 X68.542 Y191.317 E0.01323
G1 X68.231 Y191.335 E0.01324
G1 X67.921 Y191.314 E0.01324
G1 X67.615 Y191.254 E0.01323
G1 X67.320 Y191.157 E0.01324
G1 X67.039 Y191.023 E0.01324
G1 X66.777 Y190.855 E0.01324
G1 X66.539 Y190.655 E0.01324
G1 X66.327 Y190.428 E0.01323
G1 X66.145 Y190.175 E0.01323
G1 X65.996 Y189.902 E0.01324
G1 X65.883 Y189.612 E0.01323
G1 X65.807 Y189.310 E0.01323
G1 X65.770 Y189.002 E0.01324
G1 X65.771 Y188.690 E0.01324
G1 X65.812 Y188.382 E0.01324
G1 X65.891 Y188.081 E0.01323
G1 X66.007 Y187.792 E0.01323
G1 X66.153 Y187.529 E0.01282
G1 X66.341 Y187.270 E0.01360
G1 X66.556 Y187.044 E0.01327
G1 X66.797 Y186.847 E0.01324
G1 X67.060 Y186.681 E0.01324
G1 X67.342 Y186.550 E0.01324
G1 X67.639 Y186.455 E0.01328
G1 X67.954 Y186.398 E0.01360
G1 X68.195 Y186.384 E0.01027
G1 X68.212 Y186.676 F7800.000
G1 F600.000
G1 X68.527 Y186.692 E0.01343
G1 X68.796 Y186.745 E0.01167
G1 X69.057 Y186.831 E0.01167
G1 X69.304 Y186.949 E0.01167
G1 X69.535 Y187.097 E0.01167
G1 X69.746 Y187.273 E0.01167
G1 X69.932 Y187.474 E0.01167
G1 X70.093 Y187.696 E0.01167
G1 X70.224 Y187.937 E0.01167
G1 X70.323 Y188.193 E0.01167
G1 X70.390 Y188.459 E0.01167
G1 X70.423 Y188.731 E0.01167
G1 X70.422 Y189.005 E0.01167
G1 X70.386 Y189.277 E0.01167
G1 X70.317 Y189.543 E0.01167
G1 X70.215 Y189.797 E0.01167
G1 X70.086 Y190.029 E0.01128
G1 X69.919 Y190.258 E0.01206
G1 X69.723 Y190.463 E0.01206
G1 X69.518 Y190.631 E0.01128
G1 X69.286 Y190.777 E0.01167
G1 X69.037 Y190.892 E0.01167
G1 X68.776 Y190.976 E0.01167
G1 X68.506 Y191.026 E0.01167
G1 X68.232 Y191.042 E0.01167
G1 X67.959 Y191.023 E0.01167
G1 X67.690 Y190.971 E0.01167
G1 X67.429 Y190.885 E0.01167
G1 X67.182 Y190.767 E0.01167
G1 X66.951 Y190.619 E0.01167
G1 X66.740 Y190.443 E0.01167
G1 X66.553 Y190.242 E0.01167
G1 X66.393 Y190.019 E0.01167
G1 X66.262 Y189.778 E0.01167
G1 X66.162 Y189.523 E0.01167
G1 X66.096 Y189.257 E0.01167
G1 X66.062 Y188.985 E0.01167
G1 X66.064 Y188.710 E0.01167
G1 X66.099 Y188.438 E0.01167
G1 X66.169 Y188.173 E0.01167
G1 X66.271 Y187.918 E0.01167
G1 X66.400 Y187.687 E0.01128
G1 X66.567 Y187.458 E0.01204
G1 X66.755 Y187.259 E0.01168
G1 X66.968 Y187.085 E0.01167
G1 X67.200 Y186.939 E0.01167
G1 X67.449 Y186.823 E0.01167
G1 X67.710 Y186.740 E0.01168
G1 X67.989 Y186.689 E0.01204
G1 X68.152 Y186.680 E0.00696
G1 X68.368 Y186.402 F7800.000
G10 ; retract
G1 X114.771 Y188.926
